svgs/sharp-solid/cabinet-filing.svg

<svg xmlns="http://www.w3.org/2000/svg" viewBox="0 0 448 512"><!--! Font Awesome Pro 6.6.0 by @fontawesome - https://fontawesome.com License - https://fontawesome.com/license (Commercial License) Copyright 2024 Fonticons, Inc. --><path d="M0 0L448 0l0 240L0 240 0 0zM0 272l448 0 0 240L0 512 0 272zM128 96l0 16 0 32 0 16 32 0 0-16 0-16 128 0 0 16 0 16 32 0 0-16 0-32 0-16-16 0L144 96l-16 0zm0 256l0 16 0 32 0 16 32 0 0-16 0-16 128 0 0 16 0 16 32 0 0-16 0-32 0-16-16 0-160 0-16 0z"/></svg>

<svg xmlns="http://www.w3.org/2000/svg" viewBox="0 0 448 512"><!--! Font Awesome Pro 6.4.2 by @fontawesome - https://fontawesome.com License - https://fontawesome.com/license (Commercial License) Copyright 2023 Fonticons, Inc. --><path d="M0 0H448V240H0V0zM0 272H448V512H0V272zM128 96v16 32 16h32V144 128H288v16 16h32V144 112 96H304 144 128zm0 256v16 32 16h32V400 384H288v16 16h32V400 368 352H304 144 128z"/></svg>
